svg/emoji_u2195.svg

<?xml version="1.0" encoding="UTF-8"?>
<svg width="128" height="128" enable-background="new 0 0 128 128" xmlns="http://www.w3.org/2000/svg"><linearGradient id="a" x1="64" x2="64" y1="4.25" y2="124.41" gradientUnits="userSpaceOnUse"><stop stop-color="#40C4FF" offset="0"/><stop stop-color="#2DB5F9" offset=".3517"/><stop stop-color="#0091EA" offset="1"/></linearGradient><path d="m116 124h-104c-4.42 0-8-3.58-8-8v-104c0-4.42 3.58-8 8-8h104c4.42 0 8 3.58 8 8v104c0 4.42-3.58 8-8 8z" fill="url(#a)"/><g opacity=".2"><path d="m116 7c2.76 0 5 2.24 5 5v104c0 2.76-2.24 5-5 5h-104c-2.76 0-5-2.24-5-5v-104c0-2.76 2.24-5 5-5h104m0-3h-104c-4.42 0-8 3.58-8 8v104c0 4.42 3.58 8 8 8h104c4.42 0 8-3.58 8-8v-104c0-4.42-3.58-8-8-8z" fill="#424242"/></g><g opacity=".2"><path d="m64 16c1.11 0 2.21 0.46 3.01 1.37l23.99 24c2.26 2.59 0.43 6.63-3.01 6.63h-13.99c-1.1 0-2 0.9-2 2v28c0 1.1 0.9 2 2 2h13.99c3.44 0 5.27 4.05 3.01 6.63l-23.99 24c-0.8 0.91-1.9 1.37-3.01 1.37s-2.21-0.46-3.01-1.37l-23.99-24c-2.27-2.58-0.43-6.63 3.01-6.63h13.99c1.1 0 2-0.9 2-2v-28c0-1.1-0.9-2-2-2h-13.99c-3.44 0-5.27-4.05-3.01-6.63l23.99-24c0.8-0.91 1.9-1.37 3.01-1.37m0-3c-1.98 0-3.87 0.84-5.19 2.31l-24 24-0.07 0.08c-1.83 2.09-2.26 4.97-1.11 7.5s3.59 4.11 6.37 4.11h13v26h-12.99c-2.78 0-5.22 1.57-6.37 4.11-1.15 2.53-0.73 5.41 1.11 7.5l0.14 0.14 23.93 23.94c1.33 1.47 3.21 2.31 5.19 2.31s3.87-0.84 5.19-2.31l23.93-23.94 0.14-0.14c1.83-2.09 2.26-4.97 1.11-7.5-1.16-2.54-3.61-4.11-6.39-4.11h-12.99v-26h12.99c2.78 0 5.22-1.57 6.37-4.11s0.73-5.41-1.11-7.5l-0.07-0.08-0.07-0.07-23.92-23.93c-1.32-1.47-3.21-2.31-5.19-2.31z" fill="#424242"/></g><path d="m60.99 17.37-23.99 24c-2.27 2.58-0.43 6.63 3.01 6.63h13.99c1.1 0 2 0.9 2 2v28c0 1.1-0.9 2-2 2h-13.99c-3.44 0-5.27 4.05-3.01 6.63l23.99 24c1.59 1.82 4.43 1.82 6.02 0l23.99-24c2.26-2.59 0.43-6.63-3.01-6.63h-13.99c-1.1 0-2-0.9-2-2v-28c0-1.1 0.9-2 2-2h13.99c3.44 0 5.27-4.05 3.01-6.63l-23.99-24c-1.59-1.83-4.43-1.83-6.02 0z" fill="#FAFAFA"/></svg>

<svg width="128" height="128" style="enable-background:new 0 0 128 128;" xmlns="http://www.w3.org/2000/svg" xmlns:xlink="http://www.w3.org/1999/xlink">
  <g>
    <linearGradient id="SVGID_1_" gradientUnits="userSpaceOnUse" x1="64" x2="64" y1="4.25" y2="124.4088">
      <stop offset="0" style="stop-color:#40C4FF"/>
      <stop offset="0.3517" style="stop-color:#2DB5F9"/>
      <stop offset="1" style="stop-color:#0091EA"/>
    </linearGradient>
    <path d="M116,124H12c-4.42,0-8-3.58-8-8V12c0-4.42,3.58-8,8-8h104c4.42,0,8,3.58,8,8v104 C124,120.42,120.42,124,116,124z" style="fill:url(#SVGID_1_);"/>
    <g style="opacity:0.2;">
      <path d="M116,7c2.76,0,5,2.24,5,5v104c0,2.76-2.24,5-5,5H12c-2.76,0-5-2.24-5-5V12c0-2.76,2.24-5,5-5H116 M116,4H12c-4.42,0-8,3.58-8,8v104c0,4.42,3.58,8,8,8h104c4.42,0,8-3.58,8-8V12C124,7.58,120.42,4,116,4L116,4z" style="fill:#424242;"/>
    </g>
    <g style="opacity:0.2;">
      <path d="M64,16c1.11,0,2.21,0.46,3.01,1.37l23.99,24c2.26,2.59,0.43,6.63-3.01,6.63H74c-1.1,0-2,0.9-2,2v28 c0,1.1,0.9,2,2,2h13.99c3.44,0,5.27,4.05,3.01,6.63l-23.99,24c-0.8,0.91-1.9,1.37-3.01,1.37s-2.21-0.46-3.01-1.37L37,86.63 C34.73,84.05,36.57,80,40.01,80H54c1.1,0,2-0.9,2-2V50c0-1.1-0.9-2-2-2H40.01c-3.44,0-5.27-4.05-3.01-6.63l23.99-24 C61.79,16.46,62.89,16,64,16 M64,13c-1.98,0-3.87,0.84-5.19,2.31L34.88,39.24l-0.07,0.07l-0.07,0.08 c-1.83,2.09-2.26,4.97-1.11,7.5c1.15,2.53,3.59,4.11,6.37,4.11H53v26H40.01c-2.78,0-5.22,1.57-6.37,4.11 c-1.15,2.53-0.73,5.41,1.11,7.5l0.07,0.07l0.07,0.07l23.93,23.94c1.33,1.47,3.21,2.31,5.19,2.31c1.98,0,3.87-0.84,5.19-2.31 l23.93-23.94l0.07-0.07l0.07-0.07c1.83-2.09,2.26-4.97,1.11-7.5C93.22,78.57,90.77,77,87.99,77H75V51h12.99 c2.78,0,5.22-1.57,6.37-4.11s0.73-5.41-1.11-7.5l-0.07-0.08l-0.07-0.07L69.19,15.31C67.87,13.84,65.98,13,64,13L64,13z" style="fill:#424242;"/>
    </g>
    <path d="M60.99,17.37L37,41.37C34.73,43.95,36.57,48,40.01,48H54c1.1,0,2,0.9,2,2v28c0,1.1-0.9,2-2,2H40.01 c-3.44,0-5.27,4.05-3.01,6.63l23.99,24c1.59,1.82,4.43,1.82,6.02,0l23.99-24c2.26-2.59,0.43-6.63-3.01-6.63H74c-1.1,0-2-0.9-2-2V50 c0-1.1,0.9-2,2-2h13.99c3.44,0,5.27-4.05,3.01-6.63l-23.99-24C65.42,15.54,62.58,15.54,60.99,17.37z" style="fill:#FAFAFA;"/>
  </g>
</svg>
